X: 23409
T: Les Anneaux D'Or
R: barndance
M: 4/4
K: Adorian
E/G/|AB A/B/c/A/ G/A/B/G A/G/F/E/|Ac A/B/c/A/ G/A/B AE/G/|
AB A/B/c/A/ G/A/B A/G/F/E/|Ac A/B/c/A/ G/A/B A||
A/B/|cc Bc/B/ A/G/F EA/B/|cd/c/ BB/A/ G/A/B/G/ AA/B/|
cd Bc/B/ A/G/F/E/ A/E/A/B/|cd/c/ Bd/A/ G/A/B A||

